X: 591
T: Fairy's Whisper
S: P.Reddan: "Knockanalban"
Q: 300
L: 1/8
M: 6/8
R: jig
N:Posted to the woodenflute mailing list October 2002
N:http://home.capecod.net/~zouki/webabc/def.abc/061068.abc
N:       2002-10-31 17:37:02 UT
K: Em
D|Egf eEf|GFG AFD|EDE GFG|E/F/Ge dAF|
Egf eEf|GFG AFD|GFG Adc|BGF E2 :|
B|e2f gfe|edb afd|efg gfe|fdB BAB|
d^cd ecA|BAd cAF|GFG Adc|BGF E2 :|

